packages/webapp/public/images/template-logos/medallia.svg

<svg width="62" height="62" viewBox="0 0 62 62" fill="none" xmlns="http://www.w3.org/2000/svg"><path d="M43.0645 20.7773L31.3591 35.7776L19.6538 20.7773H13V53H20.2273V33.1126L31.1182 47.0288H31.493L42.4912 33.0153V53H49.7181V20.7773H43.0645Z" fill="#323A40"/><path d="M38.0004 15.6398L31.3592 8.9991L24.7183 15.6398L31.3592 22.2812L38.0004 15.6398Z" fill="#484FAA"/></svg>

<svg xmlns="http://www.w3.org/2000/svg" width="62" height="62" fill="#fff"><path d="M43.064 20.778l-11.705 15-11.705-15H13V53h7.227V33.113l10.891 13.916h.375l10.998-14.013V53h7.227V20.778h-6.654zM38 15.641L31.359 9l-6.641 6.641 6.641 6.641L38 15.641z"/></svg>
